X: 314
T: THE MORNING SUN
T: Grian na maidne
B: O'Neill's 314
M: 2/4
L: 1/16
Z: 1999 by John Chambers <jc@trillian.mit.edu>
N: "With spirit and feeling"
N: "Collected by J.O'Neill"
K:C
(D>E) \
|G4 GABc|d2G2 B4|gfge dBAG|A2E2 GF2D2|
|G4 GABc|d2G2 B4|gfge dBAG|A3G B3G|
|BAGAB G2||d2|g2fe .a2.g2|f4 Te4|d6 ge|
|d4 B2A|BcBABd edef|Hg6 DE|G4 GABc|
|dBAG B4|gfge dBAG|A3G B3G|BAGAB G2||
